icons/Battery_warning.svg

<svg width="24" height="24" viewBox="0 0 24 24" fill="none" xmlns="http://www.w3.org/2000/svg">
<path fill-rule="evenodd" clip-rule="evenodd" d="M9,3.25001c0,-0.41422 0.33579,-0.75 0.75,-0.75h4.5c0.4142,0 0.75,0.33578 0.75,0.75c0,0.41421 -0.3358,0.75 -0.75,0.75h-4.5c-0.41421,0 -0.75,-0.33579 -0.75,-0.75zM6.25,8.00001c0,-1.51878 1.23122,-2.75 2.75,-2.75h6c1.5188,0 2.75,1.23121 2.75,2.75v10.49999c0,1.5188 -1.2312,2.75 -2.75,2.75h-6c-1.51878,0 -2.75,-1.2312 -2.75,-2.75zM9,6.75001c-0.69036,0 -1.25,0.55964 -1.25,1.25v10.49999c0,0.6904 0.55964,1.25 1.25,1.25h6c0.6904,0 1.25,-0.5596 1.25,-1.25v-10.49999c0,-0.69036 -0.5596,-1.25 -1.25,-1.25zM12,8.75001c0.4142,0 0.75,0.33578 0.75,0.75v3.99999c0,0.4142 -0.3358,0.75 -0.75,0.75c-0.4142,0 -0.75,-0.3358 -0.75,-0.75v-3.99999c0,-0.41422 0.3358,-0.75 0.75,-0.75zM13.125,16.625c0,0.6213 -0.5037,1.125 -1.125,1.125c-0.6213,0 -1.125,-0.5037 -1.125,-1.125c0,-0.6213 0.5037,-1.125 1.125,-1.125c0.6213,0 1.125,0.5037 1.125,1.125z" fill="#002B51"/>
</svg>

<svg width="24" height="24" viewBox="0 0 24 24" fill="none" xmlns="http://www.w3.org/2000/svg">
<path fill-rule="evenodd" clip-rule="evenodd" d="M9 3.25001C9 2.83579 9.33579 2.50001 9.75 2.50001H14.25C14.6642 2.50001 15 2.83579 15 3.25001C15 3.66422 14.6642 4.00001 14.25 4.00001H9.75C9.33579 4.00001 9 3.66422 9 3.25001ZM6.25 8.00001C6.25 6.48123 7.48122 5.25001 9 5.25001H15C16.5188 5.25001 17.75 6.48122 17.75 8.00001V18.5C17.75 20.0188 16.5188 21.25 15 21.25H9C7.48122 21.25 6.25 20.0188 6.25 18.5V8.00001ZM9 6.75001C8.30964 6.75001 7.75 7.30965 7.75 8.00001V18.5C7.75 19.1904 8.30964 19.75 9 19.75H15C15.6904 19.75 16.25 19.1904 16.25 18.5V8.00001C16.25 7.30965 15.6904 6.75001 15 6.75001H9ZM12 8.75001C12.4142 8.75001 12.75 9.08579 12.75 9.50001V13.5C12.75 13.9142 12.4142 14.25 12 14.25C11.5858 14.25 11.25 13.9142 11.25 13.5V9.50001C11.25 9.08579 11.5858 8.75001 12 8.75001ZM13.125 16.625C13.125 17.2463 12.6213 17.75 12 17.75C11.3787 17.75 10.875 17.2463 10.875 16.625C10.875 16.0037 11.3787 15.5 12 15.5C12.6213 15.5 13.125 16.0037 13.125 16.625Z" fill="#002B51"/>
</svg>
